X:1
T:Gelobet sey Gott
T:André Vierendeels
T:Melody by Georg Vogler (1625) (T 1 voice) 
T:Source : Catechismus---Würzburg---J.Volmari---1652. Editor : André Vierendeels (27/09/17).
T:Notes : Original Clef : C3, other voices supplied editorially Original note values have been halved Text Middle German 
T:Gelobet sey Gott
T:©
T:©
C:André Vierendeels
Z:©
%%score [ 1 2 3 ]
L:1/8
Q:1/4=120
M:2/2
K:F
V:1 treble-8 nm="Tenor 1" snm="T 1"
V:2 treble-8 nm="Tenor 2" snm="T 2"
V:3 bass nm="Bass" snm="B"
V:1
"^1)" G4 G2 A2 | B2 A2 G4 | F2 F2 B2 B2 | c2 c2 d4 | z2 c2 d2 e2 | f2 g2 f4 | d2 d2 _e2 d2 | %7
w: Ge- lob't sey|Gott der Vat-|ter, in sei- nem|höch- sten Thron,|und auch der|Se- lig- ma-|cher, sein ein- ge-|
w: O Gott! Wöl-|lest ausz- ren-|ten Irz- thumb und|Ke- tze- rey,|da- mit bry|al- len Leu-|then, der Glaub ohn|
 c2 c2 !fermata!c4 | z2 B2 c2 B2 | c2 d2 _e4 | d2 c2 G2 A2 | B2 G2 !fermata!F4 | z2 F2 c2 B2 | %13
w: bohr- ner Sohn,|ge- lob't sey|auch der Trö-|ster der le- bend-|ma- cher Geist,|der ei- nig|
w: Irz- thumb sey:|Den Glau- ben|helff ver- meh-|ren auff Er- den|weit und breyt,|dasz al- le|
 c2 d2 _e4 | d2 c2 B2 G2 | A2 d2 c4 | B>AGB A4 | G8 |] %18
w: Gott und Herz-|scher, die Drey- heit|al- ler- meist.|Ky- ri- e, e- ley-|son.|
w: dich recht eh-|ren, nun in E-|wig- * keit.|Ky- ri- e, e- ley-|son.|
V:2
"^2)""^1)" G4 E2 F2 | F2 C2 E4 | C2 F2 F2 F2 | E2 F2 F4 | z2 A2 A2 G2 | F2 G2 A4 | F2 G2 G2 F2 | %7
w: Ge- lob't sey|Gott der Vat-|ter, in sei- nem|höch- ster Thron,|und auch der|Se- lig- ma-|cher, sein ein- ge-|
w: Helff al- le|Päsz ver- sper-|ren, Tür- ki- scher|Krafft und Macht:|Ver- leyh Für-|sten und Her-|ren, den Sieg in|
 F2 E2 !fermata!F4 | z2 F2 E2 F2 | G2 F2 G4 | F2 A2 E2 C2 | F2 E2 F4 | z2 F2 E2 F2 | A2 F2 G4 | %14
w: bohr- ner Sohn,|ge- lob't sey|auch der Trö-|ster der le- bend-|ma- cher Geist,|der ei- nig|Gott und Herz-|
w: al- ler Schlacht.|Dem Käy- ser|tri- um- phi-|ren, helff in dem|gan- tzen Reich,|glück- se- li-|ges re- gie-|
 G2 G2 F2 E2 | F2 F2 F4 | F>FDD ^F4 | D8 |] %18
w: scher, die Drey- heit|al- ler- meist.|Ky- ri- e, e- ley-|son|
w: ren, gib al- len|Für- sten gleich.|Ky- ri- e, e- ley-|son.|
V:3
"^3)""^1)""^4)" G,4 C,2 F,2 | B,,2 F,,2 C,4 | A,,2 F,,2 B,,2 B,,2 | C,2 F,,2 B,,4 | %4
w: Ge- lob't sey|Gott der Vat-|ter, in sei- nem|höch sten Thron,|
w: Gib dasz wir|al- le hal-|ten, dein hei- li-|ge Ge- bott:|
 z2 F,2 F,2 C,2 | D,2 C,2 F,4 | D,2 B,,2 C,2 D,2 | F,2 C,2 !fermata!F,,4 | z2 B,,2 C,2 D,2 | %9
w: und auch der|Se- lig- ma-|cher, sein ein- ge-|bohr- ner Sohn,|ge- lob't sey|
w: Gib dasz wir|uns nicht spal-|ten, von dir O|tre- wer Gott.|Gib dasz wir|
 E,2 D,2 C,4 | D,2 F,2 C,2 F,,2 | B,,2 C,2 F,,4 | z2 F,2 C,2 D,2 | F,2 D,2 C,4 | B,,2 C,2 D,2 C,2 | %15
w: auch der Trö-|ster der le- bend-|ma- cher Geist,|der ei- nig|Gott und Herz-|scher, die Drey- heit|
w: glau- big blei-|ben bisz zu dem|letz- ten End,|und lasz uns|nicht ab- lei-|ben ohn al- le|
 C,2 B,,2 F,4 | B,,>F,,G,,B,, D,4 | G,,8 |] %18
w: al- ler- meist.|Ky- ri- e, e- ley-|son.|
w: Sa- cra- ment.|Ky- ri- e, e- ley-|son.|

